!!!COM: Davide Marney
!!!OTL: Break Thou the Bread of Life
**kern	**kern	**kern	**text	**text	**text	**text
*part3	*part2	*part1	*part1	*part1	*part1	*part1
*staff3	*staff2	*staff1	*staff1	*staff1	*staff1	*staff1
*clefF4	*clefG2	*clefG2	*	*	*	*
*k[f#c#]	*k[f#c#]	*k[f#c#]	*	*	*	*
*M4/4	*M4/4	*M4/4	*	*	*	*
!LO:TX:a:i:t=dolce	!	!	!	!	!	!
[8DDL	4r	1r	.	.	.	.
8DD_ [8AA	.	.	.	.	.	.
2.DDJ] 2.AA] 2.D	8r	.	.	.	.	.
.	8A	.	.	.	.	.
.	[8dL	.	.	.	.	.
.	[8A 8d_	.	.	.	.	.
.	8G 8A_ 8d_	.	.	.	.	.
.	8F#yJ 8A] 8d]	.	.	.	.	.
=2	=2	=2	=2	=2	=2	=2
[8DDL	4r	1r	.	.	.	.
8DDJ_ [8AA	.	.	.	.	.	.
2DD_ 2AA_ [2D	8r	.	.	.	.	.
.	8A	.	.	.	.	.
.	[8dL	.	.	.	.	.
.	[8A 8d_	.	.	.	.	.
8DDL] 8AA] 8D]	4GJ 4A] 4d]	.	.	.	.	.
8AAJ	.	.	.	.	.	.
=3:|!	=3:|!	=3:|!	=3:|!	=3:|!	=3:|!	=3:|!
8DD	4r	4r	.	.	.	.
8AA	.	.	.	.	.	.
[2D	4A 4d 4f#y	4f#y	Break	Bless	Thou	O
.	4A 4d 4g	4g	thou	thou	art	send
8DL]	4A 4d 4f#y	4f#y	the	the	the	thy
8AAJ	.	.	.	.	.	.
=4	=4	=4	=4	=4	=4	=4
2GG 2F#y	4.B 4.d 4.f#y	4.f#y	bread	truth,	Bread	Spir-
.	8e	8e	of	dear	of	it
2AA 2E	4A 4c#y 4e	2e	life,	Lord,	Life,	Lord,
.	4d	.	.	.	.	.
!!LO:LB
=5	=5	=5	=5	=5	=5	=5
.	8GG	4r	.	.	.	.
.	8D	.	.	.	.	.
.	[2G	4g	dear	to	O	now
.	.	4a	Lord,	me,	Lord,	un-
.	8G]	4g	to	to	to	to
.	8G	.	.	.	.	.
=6	=6	=6	=6	=6	=6	=6
4.DD 4.D	4.F#y 4.A 4.d 4.f#y	2f#y	me	me	me	me
8DD 8D	8F#y 8A 8f#y	.	.	.	.	.
2CC#y 2C#y	4.E 4.A 4.e	2r	.	.	.	.
.	16d	.	.	.	.	.
.	16c#y	.	.	.	.	.
=7	=7	=7	=7	=7	=7	=7
8DD	4d	4r	.	.	.	.
8AA	.	.	.	.	.	.
[2D	4A 4d 4f#y	4f#y	As	As	Thy	That
.	4d	4d	thou	thou	ho-	He
8DL]	4B 4d 4b	4b	did	did	ly	may
8DJ	.	.	.	.	.	.
=8	=8	=8	=8	=8	=8	=8
8AA	4.A 4.c#y 4.e 4.a	4.a	break	bless	Word	touch
8C#y	.	.	.	.	.	.
2.E	.	.	.	.	.	.
.	8e	8e	the	the	the	my
.	4A 4c#y 4e	2e	loaves	bread	truth	eyes
.	8dL	.	.	.	.	.
.	8c#yJ	.	.	.	.	.
!!LO:LB
=9	=9	=9	=9	=9	=9	=9
4GG	4d	4r	.	.	.	.
[2D	4G 4B 4d 4g	4g	be-	by	that	and
.	4A 4a	4a	side	Gal-	sav-	make
8DL]	4B 4d 4b	4b	the	i-	eth	me
8DJ	.	.	.	.	.	.
=10	=10	=10	=10	=10	=10	=10
8AAL	4.A 4.c#y 4.e 4.a	2a	sea;	lee;	me;	see:
8C#y	.	.	.	.	.	.
[8EJ	.	.	.	.	.	.
2E]	8B	.	.	.	.	.
.	8c#yL	2r	.	.	.	.
.	8eJ	.	.	.	.	.
.	8AL	.	.	.	.	.
16AAL	16A	.	.	.	.	.
16AA#yJ	16A#yJ	.	.	.	.	.
=11	=11	=11	=11	=11	=11	=11
8BB	4B	4r	.	.	.	.
8D	.	.	.	.	.	.
[2F#y [2B	4d 4f#y 4dd	4dd	Though-	Then	Give	Show
.	4c#y 4e 4cc#y	4cc#y	out	shall	me	me
8F#yL] 8B]	4B 4e 4b	4b	the	all	to	the
8BBJ	.	.	.	.	.	.
=12	=12	=12	=12	=12	=12	=12
[2C#y	4.B 4.c#y 4.e 4.b	4.b	sa-	bon-	eat	truth
.	8c#y 8cc#y	8cc#y	cred	dage	and	re-
8C#yL]	2A 2c#y 2e 2a	2a	page	cease,	live	vealed
8C#y	.	.	.	.	.	.
8AA	.	.	.	.	.	.
8C#yJ	.	.	.	.	.	.
!!LO:LB
=13	=13	=13	=13	=13	=13	=13
8D	4r	4r	.	.	.	.
[8DD	.	.	.	.	.	.
2DD]	4B 4d 4f#y 4b	4b	I	All	With	With-
.	4A 4d 4f#y 4a	4a	seek	fet-	thee	in
8F#yL	4A 4d 4f#y	4f#y	thee,	ters	a-	thy
8DJ	.	.	.	.	.	.
=14	=14	=14	=14	=14	=14	=14
4.GG 4.D	2G 2B 2d]	[2d	Lord,     	fall;      	bove;     	Word,     
8GG	.	.	.	.	.	.
2AA 2E	4A 4c#y 4e	2e	.	.	.	.
.	4d	.	.	.	.	.
=15	=15	=15	=15	=15	=15	=15
8DD	4r	4r	.	.	.	.
8AA	.	.	.	.	.	.
[2D	4A 4d 4f#y	4f#y	My	And	Teach	And
.	4A 4d 4g	4g	spir-	I	me	in
8DL]	4A 4d 4f#y	4f#y	it	shall	to	thy
8AAJ	.	.	.	.	.	.
=16	=16	=16	=16	=16	=16	=16
2GG 2F#y	4.B 4.d 4.f#y	4.f#y	pants	find	love	light
.	8e	8e	for	my	thy	I'll
2AA 2E	4A 4c#y 4e	2e	thee,	peace,	truth,	see
.	8dL	.	.	.	.	.
.	8c#yJ	.	.	.	.	.
!!LO:LB
=17	=17	=17	=17	=17	=17	=17
4.GG 4.D	4G 4B 4d	4r	.	.	.	.
.	4G 4B 4d	4d	O	my	for	my
8GG	.	.	.	.	.	.
8FF#yL	4F#y 4A 4d	4d	liv-	All	thou	gra-
8D	.	.	.	.	.	.
8EE	4E 4G 4d	4d	ing	in	art	cious     
8DJ	.	.	.	.	.	.
=	=	=	=	=	=	=
*-	*-	*-	*-	*-	*-	*-
